X:1
T:[ID 7-173b]
T:[ID 7-173b]
T:Bezeichnung standardisiert: Englischer Engl.
T:Urheber unbekannt Datum in der hier transkribierten schriftlichen Quelle: 1776 - 1791
C:Urheber unbekannt
C:Datum in der hier transkribierten schriftlichen Quelle: 1776 - 1791
%%score 1 2
L:1/8
M:2/4
K:C
V:1 treble 
V:2 treble 
V:1
 cc (cB) | (cd).e.d | cc(cB) | cc C2 |!f! G/A/B/c/ dB | dd B2 | cc A2 | BB G2 :: g/^f/g/a/ g2 | %9
 afaf | f/e/f/g/ ff | g/e/g/e/ c2 | B/c/d/e/ ff | B/c/d/e/ ff | e/f/e/f/ ge | cc c2 :| %16
V:2
 !fermata!EE (ED) | (EF).G.F | EE (ED) | EE E2 | G/A/B/c/ BB | BB G2 | AA F2 | GG B,2 :: %8
 e/d/e/f/ e2 | fdfd | d/c/d/e/ dd | e/c/e/c/ E2 | G/A/B/c/ dd | G/A/B/c/ dd | c/d/c/d/ ec | %15
 EE E2 :| %16

